X: 1192
T: An Cota Ruadh
R: strathspey
M: 4/4
K: Dmajor
|{g}B>A {g}B<d {gef}e2 {g}e<g|{Gd}G2 {gBd}B>A {g}G>{d}G {e}G>d|{gBd}B>A {g}B<d {gef}e2 {g}e<g|{ag}a>e {gf}g>B {g}A2 {GdGe}A>d|
{gBd}B>A {g}B<d {gef}e2 {g}e<g|{Gd}G2 {gBd}B>A {g}G>{d}G {e}G>d|{gBd}B>A {g}B<d {gef}e2 {g}e<g|{ag}a>e {gf}g>B {g}A2 {GdGe}A>e||
{ag}a>e {gf}g>f {g}e>d {g}e<g|{Gd}G2 {gBd}B>A {g}G>{d}G {e}G>e|{ag}a>e {gf}g>f {g}e>d {g}e<g|{ag}a>e {gf}g>B {g}A2 {GdGe}A>e|
{ag}a>e {gf}g>f {g}e>d {g}e<g|{Gd}G2 {gBd}B>A {g}G>{d}G {e}G>d|{gBd}B>A {g}B<d {gef}e2 {g}e<g|{ag}a>e {gf}g>B {g}A4||

